gama.ui.shared/icons_svg/dark/views/open.inspector.svg

<svg height="25" viewBox="-634.483 -3025.285 25 25" width="25" xmlns="http://www.w3.org/2000/svg"><g fill="none"><path d="m-630.14276-3024.7847h16.32c2.12076 0 3.84 1.7192 3.84 3.84v16.32c0 2.1207-1.71924 3.84-3.84 3.84h-16.32c-2.12074 0-3.84-1.7193-3.84-3.84v-16.32c0-2.1208 1.71926-3.84 3.84-3.84z" fill="#666"/><path d="m-630.14276-3024.7847h16.32c2.12076 0 3.84 1.7192 3.84 3.84v16.32c0 2.1207-1.71924 3.84-3.84 3.84h-16.32c-2.12074 0-3.84-1.7193-3.84-3.84v-16.32c0-2.1208 1.71926-3.84 3.84-3.84z" stroke="#fff" stroke-linecap="round" stroke-linejoin="round" stroke-width=".25"/><path d="m-629.9528-3012.9282c1.7116-4.4068 6.6624-6.5904 11.0613-4.8788 2.2394.8718 4.015 2.6393 4.87875 4.8788.03999.096.03999.1999 0 .2879-1.70355 4.3989-6.66235 6.5903-11.06125 4.8788-2.2394-.8718-4.007-2.6395-4.8788-4.8788-.03995-.096-.03995-.1999 0-.2879zm5.17474 4.4229c3.94302 1.5276 8.37391-.3839 9.96551-4.2789-.8078-1.9596-2.3834-3.5112-4.36691-4.279-3.94304-1.5276-8.36594.3839-9.96554 4.279.8078 1.9595 2.38344 3.5112 4.36694 4.2789zm2.7993-1.0797c-1.76754 0-3.1992-1.4317-3.1992-3.1992 0-1.7676 1.43166-3.1992 3.1992-3.1992 1.76756 0 3.1992 1.4316 3.1992 3.1992 0 1.7675-1.43164 3.1992-3.1992 3.1992zm0-.8c1.32766 0 2.3994-1.0716 2.3994-2.3992 0-1.3278-1.07174-2.3994-2.3994-2.3994-1.32764 0-2.3994 1.0716-2.3994 2.3994 0 1.3276 1.07176 2.3992 2.3994 2.3992z" fill="#c0e0ff"/></g></svg>

<?xml version="1.0" encoding="UTF-8" standalone="no"?>
<!DOCTYPE svg PUBLIC "-//W3C//DTD SVG 1.1//EN" "http://www.w3.org/Graphics/SVG/1.1/DTD/svg11.dtd">
<svg xmlns="http://www.w3.org/2000/svg" xmlns:xl="http://www.w3.org/1999/xlink" version="1.1" xmlns:dc="http://purl.org/dc/elements/1.1/" viewBox="-634.48276 -3025.2847 25 25" width="25" height="25">
  <defs/>
  <g id="SOURCES" stroke-opacity="1" fill="none" stroke="none" fill-opacity="1" stroke-dasharray="none">
    <title>SOURCES</title>
    <g id="SOURCES_Dark">
      <title>Dark</title>
      <g id="Graphic_11087">
        <path d="M -630.14276 -3024.7847 L -613.82276 -3024.7847 C -611.702 -3024.7847 -609.98276 -3023.0655 -609.98276 -3020.9447 L -609.98276 -3004.6247 C -609.98276 -3002.504 -611.702 -3000.7847 -613.82276 -3000.7847 L -630.14276 -3000.7847 C -632.2635 -3000.7847 -633.98276 -3002.504 -633.98276 -3004.6247 L -633.98276 -3020.9447 C -633.98276 -3023.0655 -632.2635 -3024.7847 -630.14276 -3024.7847 Z" fill="#666"/>
        <path d="M -630.14276 -3024.7847 L -613.82276 -3024.7847 C -611.702 -3024.7847 -609.98276 -3023.0655 -609.98276 -3020.9447 L -609.98276 -3004.6247 C -609.98276 -3002.504 -611.702 -3000.7847 -613.82276 -3000.7847 L -630.14276 -3000.7847 C -632.2635 -3000.7847 -633.98276 -3002.504 -633.98276 -3004.6247 L -633.98276 -3020.9447 C -633.98276 -3023.0655 -632.2635 -3024.7847 -630.14276 -3024.7847 Z" stroke="white" stroke-linecap="round" stroke-linejoin="round" stroke-width=".25"/>
      </g>
      <g id="Graphic_11086">
        <path d="M -629.9528 -3012.9282 C -628.2412 -3017.335 -623.2904 -3019.5186 -618.8915 -3017.807 C -616.6521 -3016.9352 -614.8765 -3015.1677 -614.01275 -3012.9282 C -613.97276 -3012.8322 -613.97276 -3012.7283 -614.01275 -3012.6403 C -615.7163 -3008.2414 -620.6751 -3006.05 -625.074 -3007.7615 C -627.3134 -3008.6333 -629.081 -3010.401 -629.9528 -3012.6403 C -629.99275 -3012.7363 -629.99275 -3012.8402 -629.9528 -3012.9282 Z M -624.77806 -3008.5053 C -620.83504 -3006.9777 -616.40415 -3008.8892 -614.81255 -3012.7842 C -615.62035 -3014.7438 -617.19595 -3016.2954 -619.17946 -3017.0632 C -623.1225 -3018.5908 -627.5454 -3016.6793 -629.145 -3012.7842 C -628.3372 -3010.8247 -626.76156 -3009.273 -624.77806 -3008.5053 Z M -621.97876 -3009.585 C -623.7463 -3009.585 -625.17796 -3011.0167 -625.17796 -3012.7842 C -625.17796 -3014.5518 -623.7463 -3015.9834 -621.97876 -3015.9834 C -620.2112 -3015.9834 -618.77956 -3014.5518 -618.77956 -3012.7842 C -618.77956 -3011.0167 -620.2112 -3009.585 -621.97876 -3009.585 Z M -621.97876 -3010.385 C -620.6511 -3010.385 -619.57936 -3011.4566 -619.57936 -3012.7842 C -619.57936 -3014.112 -620.6511 -3015.1836 -621.97876 -3015.1836 C -623.3064 -3015.1836 -624.37816 -3014.112 -624.37816 -3012.7842 C -624.37816 -3011.4566 -623.3064 -3010.385 -621.97876 -3010.385 Z" fill="#c0e0ff"/>
      </g>
    </g>
  </g>
</svg>
